X:1
T:O Magnum Mysterium
T:Cristobal de Morales arr. from ssaa BMarble
T:O Magnum Mysterium
T:Copyright © 2014 by CPDL.  This edition can be fully distributed, duplicated, performed, and recorded 
T:Copyright © 2014 by CPDL.  This edition can be fully distributed, duplicated, performed, and recorded 
T:Copyright © 2014 by CPDL.  This edition can be fully distributed, duplicated, performed, and recorded 
T:Copyright © 2014 by CPDL.  This edition can be fully distributed, duplicated, performed, and recorded 
T:Copyright © 2014 by CPDL.  This edition can be fully distributed, duplicated, performed, and recorded 
T:Copyright © 2014 by CPDL.  This edition can be fully distributed, duplicated, performed, and recorded 
T:Copyright © 2014 by CPDL.  This edition can be fully distributed, duplicated, performed, and recorded 
C:Cristobal de Morales
C:arr. from ssaa BMarble
Z:Copyright © 2014 by CPDL.  This edition can be fully distributed, duplicated, performed, and recorded
%%score [ 1 2 3 4 ]
L:1/8
Q:1/2=92
M:4/2
K:Bb
V:1 treble nm="SOPRANO" snm="S."
V:2 treble nm="ALTO" snm="A."
V:3 treble-8 transpose=-12 nm="TENOR" snm="T."
V:4 bass nm="BASS" snm="B."
V:1
"^O great mystery and wondrous sacrament,that animals should see the new-born Lord lying in a manger. Blessed is the Virgin whose wombwas worthy to bear Jesus Christ the Lord. Lord, I heard your voice and was afraid;I considered your works and I trembled: between two animals." F16 | %1
w: O|
 G16 | A8 B8 | B12 B4 | A16 | z8 A8 | A8 A8 | B12 B4 | B8 A4 A4 | G16 | A16- | A16 | z4 A4 A4 A4 | %13
w: ma-|gnum my-|ste- ri-|um|et|ad- mi-|ra- bi-|le sa- cra-|men-|tum,|_|ut a- ni-|
 B12 A4 | G8 z4 G4 | G4 A4 B8 | A4 G4 B8- | (B4 A2 G2) F4 G4 | G4 A4 B8- | B4 (A2 G2) A4 A4 | G16 | %21
w: ma- li-|a vi-|de- rent Do-|mi- num na-|* * * tum ja-|cen- tem in|_ prae- * se- pi-|o.|
 z8 F8 | F8 G8 | A8 F8 | G8 G4 G4 | F8 D8 | B12 A4 | G4 G4 F8 | D4 (B8 A2 G2 | A4) A4 G8 | %30
w: Be-|a- ta|Vir- go|Ma- ri- a,|cu- jus|vi- sce-|ra, vi- sce-|ra me- * *|* ru- e-|
 F8 z4 F4- | F2 F2 F4 E4 D4 | F12 (=E2 D2 | =E8) F8 | z8 B8- | B4 B4 A8 | G16- | G16 | A16 | %39
w: runt por-|* ta- re Do- mi-|num Chri- *|* stum,|Do-|* mi- num|Chri-||stum.|
 F12 D4 | D8 B8- | B4 G4 G4 B4- | (B4 A4) G8 | A8 F8- | F4 D4 D8 | z4 F4 F4 F4 | G4 B6 B2 B4 | %47
w: Do- mi-|ne, Do-|* mi- ne, au-|* * di-|vi, Do-|* mi- ne,|au- di- vi|au- di- tum tu-|
 A4 (G2 F2) G4 G4 | F16 | z16 | z4 F4 F4 F4 | G6 A2 B4 A4 | G8 F8 | E8 B8- | B4 A4 G8 | G8 z4 D4 | %56
w: um et _ ti- mu-|i:||con- si- de-|ra- vi o- pe-|ra tu-|a, et|_ ex- pa-|vi: in|
 F4 F4 G4 B4- | B4 A4 G4 F4 | E4 D4 C8 | B,8 z8 | z4 D4 F4 F4 | G4 (B8 A4) | (G8 F8) | D8 z8 | %64
w: me- di- o du-|* o- rum a-|ni- ma- li-|um,|in me- di-|o du- *|o- *|rum|
 B6 A2 G8 | F8 !fermata!F8 |] %66
w: a- ni- ma-|li- um.|
V:2
 B,16 | D16 | F8 G8 | F12 F4 | F16 | z8 F8 | F8 F8 | F12 F4 | G8 F4 F4- | F4 (=E2 D2 E8) | F16 | %11
w: O|ma-|gnum my-|ste- ri-|um|et|ad- mi-|ra- bi-|le sa- cra-|* men- * *|tum,|
 z4 C4 C4 C4 | F12 F4 | (D16 | _E8) z4 E4 | E4 F4 G4 (F2 E2) | F4 (G6 F2 D4 | E8) D4 B4 | %18
w: ut a- ni-|ma- li-|a|_ vi-|de- rent Do- mi- *|num na- * *|* tum ja-|
 B4 A4 G8- | G4 F4 F4 F4 | B,8 z4 B,4 | B,4 C4 D4 B,2 C2 | (D2 E2 F8 =E4) | F8 B,8 | %24
w: cen- tem in|_ prae- se- pi-|o. Be-|a- ta Vir- go Ma-|ri- * * *|a, cu-|
 B,8 (C4 B,4-) | B,4 A,4 B,4 B4- | B4 A4 G4 F4 | E4 B8 A4 | G4 G4 F8- | F8 B,4 B4- | %30
w: jus vi- *|* sce- ra me-|* ru- e- runt|por- ta- re|Do- mi- num,|_ por- ta-|
 B2 B2 B4 F4 F4 | A8 G8 | z8 B8- | B4 B4 A8 | G12 G4 | F8 F8 | D16 | =E4 (F8 E4) | F8 z8 | z16 | %40
w: * re Do- mi- num|Chri- stum,|por-|* ta- re|Do- mi-|num, Do-|mi-|num Chri- *|stum.||
 B12 G4 | G4 (B6 A2 G2 F2 | G4) (F8 =E4) | F8 z8 | z16 | z16 | z4 B,4 B,4 B,4 | C4 E6 E2 (E4 | %48
w: Do- mi-|ne, au- * * *|* di- *|vi|||au- di- tum|tu- um, et ti-|
 D4) (C2 B,2) C8 | z4 B,4 B,4 B,4 | C12 D4 | (E6 F2 G4) F4- | F2 E2 (E8 D4) | E8 G8- | G4 F4 E8- | %55
w: * mu- * i:|con- si- de-|ra- vi|o- * * pe-|* ra tu- *|a, et|_ ex- pa-|
 (E4 D2 C2) D4 B,4 | C4 D4 E4 G4- | G4 F4 E4 D4 | C4 B,8 A,4 | B,4 D4 F4 F4 | G4 (B8 A4) | %61
w: * * * vi: in|me- di- o du-|* o- rum a-|ni- ma- li-|um, in me- di-|o du- *|
 G4 G4 F6 E2 | (D4 E4) C8 | B,8 B6 A2 | (G2 F2 G6 F2 E4-) | E4 (D2 C2) !fermata!D8 |] %66
w: o- rum a- ni-|ma- * li-|um, a- ni-|ma- * * * *|* li- * um.|
V:3
 B16 | B16 | c8 e8- | e4 (d2 c2 d4) d4 | c16 | z8 c8 | c8 c8 | d12 d4 | e8 c4 f4 | B16 | c8 z4 c4 | %11
w: O|ma-|gnum my-|* ste- * * ri-|um|et|ad- mi-|ra- bi-|le sa- cra-|men-|tum, ut|
 c4 c4 (f6 e2 | d4) (c2 B2) c8 | z4 G4 G4 A4 | B6 A2 B4 c4- | (c2 B2 A4) (G2 A2 B2 c2 | %16
w: a- ni- ma- *|* li- * a|vi- de- rent|Do- mi- num na-|* * * tum _ _ _|
 d4) e6 d2 d4- | (d4 c4) d8- | d8 d8 | z4 d4 c4 d4 | e12 d4 | (e4 f6) e2 d4- | (d4 c4) B8 | c8 d8 | %24
w: _ Do- mi- num|_ _ na-|* tum|ja- cen- tem|in prae-|se- * pi- o.|_ _ Be-|a- ta|
 e8 e4 e4 | c8 B8 | z8 e8- | e4 d4 c4 c4 | B4 d6 d2 d4 | c4 d4 e8- | e4 (d2 c2 d8) | (c12 B4 | %32
w: Vir- go Ma-|ri- a,|cu-|* jus vi- sce-|ra me- ru- e-|runt por- ta-|* re _ _|por- *|
 c4) (d6 c2 B2 A2 | B8) c8 | e12 e4 | d8 c8- | (c4 =B2 A2 B8) | c16 | z8 f8- | f4 d4 (d6 e2 | %40
w: * ta- * * *|* re|Do- mi-|num Chri-||stum.|Do-|* mi- ne, _|
 f4) (g6 f2) d4 | e16 | z8 c8- | c4 A4 A8 | z4 B4 B4 B4 | c4 d6 d2 c4 | d4 e4 (d6 e2 | f4) B4 B8 | %48
w: _ au- * di-|vi|Do-|* mi- ne,|au- di- vi|au- di- tum tu-|um et ti- *|* mu- i:|
 z4 A4 A4 A4 | B6 c2 d4 B4- | B4 (A2 G2) A8 | B8 z8 | z8 B8 | c8 d8- | d8 B4 c4- | %55
w: con- si- de-|ra- vi o- pe-|* ra _ tu-|a,|et|ex- pa-|* vi, ex-|
 (c4 B2 A2 B4) B4- | (B4 A4) B8 | z16 | z16 | z4 B4 d4 c4- | c4 B4 c8 | e8 d4 c4- | c2 B2 B8 A4 | %63
w: * * * * pa-|* * vi:|||in me- di-|* o du-|o- rum a-|* ni- ma- li-|
 B16- | B16- | !fermata!B16 |] %66
w: um.|_||
V:4
 B,16 | G,16 | F,8 E,8 | B,12 B,4 | F,16 | z8 F,8 | F,8 F,8 | B,12 B,4 | E,8 F,4 F,4 | G,16 | %10
w: O|ma-|gnum my-|ste- ri-|um|et|ad- mi-|ra- bi-|le sa- cra-|men-|
 F,16- | F,16 | z4 F,4 F,4 F,4 | (B,6 A,2 G,4) F,4 | E,16 | z16 | z8 z4 G,4 | G,4 A,4 B,4 G,4- | %18
w: tum,|_|ut a- ni-|ma- * * li-|a||ja-|cen- tem in prae-|
 (G,4 F,4) (G,8 | D,6 E,2) F,8 | E,8 z4 G,4 | G,4 A,4 B,8- | B,4 A,4 G,4 G,4 | F,8 z8 | E,8 E,8 | %25
w: * * se-|* * pi-|o. Be-|a- ta Vir-|* go Ma- ri-|a,|cu- jus|
 F,8 G,8 | E,8 z8 | E,8 F,8 | G,8 D,6 E,2 | F,8 E,8 | z4 B,6 B,2 B,4 | F,8 G,8 | %32
w: vi- sce-|ra|me- ru-|e- runt por-|ta- re,|por- ta- re|Do- mi-|
 A,4 (B,6 A,2 G,2 F,2) | G,8 F,8 | E,16 | B,8 F,8 | G,16 | z16 | F,12 D,4 | D,8 B,8- | %40
w: num Chri- * * *|stum, Do-|mi-|num Chri-|stum.||Do- mi-|ne, Do-|
 B,4 G,4 (G,6 F,2 | E,16) | z16 | F,12 D,4 | D,4 G,4 G,4 G,4 | A,4 B,6 B,2 A,4 | G,4 E,4 (G,8 | %47
w: * mi- ne, _|_||Do- mi-|ne, au- di- vi|au- di- tum tu-|um et ti-|
 F,4) E,4 E,8 | z4 F,4 F,4 F,4 | G,6 A,2 B,4 G,4 | F,8 F,8 | E,8 z8 | z16 | z8 G,8- | %54
w: * mu- i:|con- si- de-|ra- vi o- pe-|ra tu-|a,||et|
 G,4 D,4 (E,6 F,2 | G,16) | (F,8 E,8) | z16 | z4 D,4 F,4 F,4 | G,4 (B,8 A,4) | G,8 F,8 | E,8 F,8 | %62
w: * ex- pa- *||vi: _||in me- di-|o du- *|o- rum|a- ni-|
 G,4 E,4 F,8 | G,6 F,2 (E,4 D,4) | E,16 | !fermata!B,,16 |] %66
w: ma- li- um,|a- ni- ma- *|li-|um.|

